icons/lines/cloud-add.svg

<svg xmlns="http://www.w3.org/2000/svg" width="24" height="24" viewBox="0 0 24 24" fill="none" stroke="currentColor" stroke-width="2" stroke-linecap="round" stroke-linejoin="round" >
  <path d="M5.54027 11.12C0.860273 11.45 0.860273 18.26 5.54027 18.59H7.46032" stroke-miterlimit="10"/>
  <path d="M5.59003 11.12C2.38003 2.19002 15.92 -1.37998 17.47 8.00002C21.8 8.55002 23.55 14.32 20.27 17.19C19.27 18.1 17.98 18.6 16.63 18.59H16.54" stroke-miterlimit="10"/>
  <path d="M17 16.53C17 17.27 16.84 17.97 16.54 18.59C16.46 18.77 16.37 18.94 16.27 19.1C15.41 20.55 13.82 21.53 12 21.53C10.18 21.53 8.58998 20.55 7.72998 19.1C7.62998 18.94 7.54002 18.77 7.46002 18.59C7.16002 17.97 7 17.27 7 16.53C7 13.77 9.24 11.53 12 11.53C14.76 11.53 17 13.77 17 16.53Z" stroke-miterlimit="10"/>
  <path d="M10.4404 16.53L11.4304 17.5201L13.5604 15.55"/>
  </svg>

<svg xmlns="http://www.w3.org/2000/svg" width="24" height="24" viewBox="0 0 24 24" fill="none" stroke="currentColor" stroke-width="2" stroke-linecap="round" stroke-linejoin="round">
  <path d="m10.44 16.53.99.99 2.13-1.97" />
  <path d="M17 16.53a4.7 4.7 0 0 1-.46 2.06 4 4 0 0 1-.27.51 5 5 0 0 1-8.54 0 4 4 0 0 1-.27-.51A4.7 4.7 0 0 1 7 16.53a5 5 0 0 1 10 0" />
  <path d="M5.54 11.12c-4.68.33-4.68 7.14 0 7.47h1.92" />
  <path d="M5.59 11.12C2.38 2.19 15.92-1.38 17.47 8c4.33.55 6.08 6.32 2.8 9.19a5.34 5.34 0 0 1-3.64 1.4h-.09" />
</svg>
